actions/22x22-dark/snap-guideline.svg

<svg viewBox="0 0 22 22" xmlns="http://www.w3.org/2000/svg"><path d="m6 3v7h-1v3h1v6h1v-6h1v-3h-1v-7zm-3 1v4l2-2zm7 0-2 2 2 2zm6 6v3h1v6h1v-6h1v-3zm-6 1v1h1v-1zm2 0v1h1v-1zm2 0v1h1v-1z" fill="#f2f2f2"/></svg>

<svg xmlns="http://www.w3.org/2000/svg" viewBox="0 0 22 22">
  <defs id="defs3051">
    <style type="text/css" id="current-color-scheme">
      .ColorScheme-Text {
        color:#f2f2f2;
      }
      </style>
  </defs>
 <path 
     style="fill:currentColor;fill-opacity:1;stroke:none" 
     d="M 6 3 L 6 10 L 5 10 L 5 13 L 6 13 L 6 19 L 7 19 L 7 13 L 8 13 L 8 10 L 7 10 L 7 3 L 6 3 z M 3 4 L 3 8 L 5 6 L 3 4 z M 10 4 L 8 6 L 10 8 L 10 4 z M 16 10 L 16 13 L 17 13 L 17 19 L 18 19 L 18 13 L 19 13 L 19 10 L 16 10 z M 10 11 L 10 12 L 11 12 L 11 11 L 10 11 z M 12 11 L 12 12 L 13 12 L 13 11 L 12 11 z M 14 11 L 14 12 L 15 12 L 15 11 L 14 11 z "
	 class="ColorScheme-Text"
     />
</svg>
